!!!COM:      Bach, Johann Sebastian
!!!CDT:      1685/03/31/-1750/07/28/
!!!OPR@@GER: Das wohltemperirte Clavier
!!!OVM@@GER: Band I
!!!OPR@ENG:  Well-Tempered Clavier
!!!OVM@ENG:  Book I
!!!OTL:      Prelude
!!!OKY:      E-flat minor
!!!ONM:      no. 8
!!!SCT:      BWV 853
!!!OMV:      1
!!!ONB: The corresponding fugue in BWV 853 is in D-sharp minor.
!!!ONB: The related prelude & fugue in BWV 877 (Book II) are in D-sharp minor.
**kern	**kern	**kern	**kern
*clefF4	*	*	*clefG2
*k[b-e-a-d-g-c-]	*	*	*k[b-e-a-d-g-c-]
*e-:	*	*	*e-:
*M3/2	*	*	*M3/2
*MM104	*MM104	*MM104	*MM104
=1-	=1-	=1-	=1-
2e- 2g-	1.ryy	1.ryy	2b-
2e- 2g-	.	.	4r
.	.	.	8r
.	.	.	8b-
2e- 2g-	.	.	4.ee-
.	.	.	8gg-
=2	=2	=2	=2
2e- 2a-	1.ryy	1.ryy	2cc-
2e- 2a- 2cc-	.	.	4r
.	.	.	8r
.	.	.	8ee-
2e- 2a- 2cc-	.	.	4.aa-
.	.	.	8ccc-
=3	=3	=3	=3
2e- 2f 2a-	1.ryy	1.ryy	2ddn
2dn 2f 2a-	.	.	4r
.	.	.	8r
.	.	.	8ff
2d 2f	.	.	[4a-W
.	.	.	16a-]
.	.	.	16g-
.	.	.	16a-
.	.	.	16b-
=4	=4	=4	=4
2e-	1.ryy	1.ryy	4.g-W
.	.	.	16f
.	.	.	16e-
4r	.	.	2gg-
8r	.	.	.
8B-	.	.	.
4.G-	.	.	2g- 2b- 2ee- 2gg-
8E-	.	.	.
=5	=5	=5	=5
2BB-	1.ryy	1.ryy	2g- 2b- 2dd- 2gg-
2BB- 2D- 2G- 2B-	.	.	4r
.	.	.	16r
.	.	.	16gg-
.	.	.	16ff-
.	.	.	16ee-
2BB- 2D- 2G- 2B-	.	.	4.ff-
.	.	.	8dd-
=6	=6	=6	=6
2C- 2E- 2G- 2c-	1.ryy	1.ryy	2e- 2g- 2cc- 2ee-
4r	.	.	2g- 2cc- 2ee-
8r	.	.	.
8G-	.	.	.
4.E-	.	.	2g- 2cc- 2ee-
8C-	.	.	.
=7	=7	=7	=7
2GGn	1.ryy	1.ryy	2b- 2ee- 2bb-
2GG 2BB- 2E- 2Gn	.	.	4r
.	.	.	16r
.	.	.	16ee-
.	.	.	16dd-
.	.	.	16cc-
2GG 2BB- 2E- 2G	.	.	4.dd-
.	.	.	8b-
=8	=8	=8	=8
2AA- 2C- 2E- 2A-	1.ryy	1.ryy	4.cc-W
.	.	.	16b-
.	.	.	16a-
4r	.	.	2ee- 2aa- 2ccc-
8r	.	.	.
8cc-	.	.	.
4.a-	.	.	2ee- 2aa- 2ccc-
8f	.	.	.
=9	=9	=9	=9
2dn	1.ryy	1.ryy	2ff 2aa- 2ccc-
2d 2f 2b-	.	.	4r
.	.	.	16r
.	.	.	16bb-
.	.	.	16aa-
.	.	.	16gg-
2d 2f 2b-	.	.	16ff
.	.	.	16gg-
.	.	.	16ff
.	.	.	16gg-
.	.	.	16aa-
.	.	.	16gg-
.	.	.	16aa-
.	.	.	16ff
=10	=10	=10	=10
2e- 2g- 2b-	1.ryy	1.ryy	4.gg-W
.	.	.	16ff
.	.	.	16ee-
4r	.	.	2b- 2ee- 2gg- 2bb-
8r	.	.	.
8g-	.	.	.
4.e-	.	.	2dd- 2ee- 2gg- 2bb-
8cn	.	.	.
=11	=11	=11	=11
2An	1.ryy	1.ryy	2ccn 2ee- 2gg- 2cccn
2A 2cn 2f	.	.	4r
.	.	.	16r
.	.	.	16ff
.	.	.	16ee-
.	.	.	16dd-
2A 2c 2f	.	.	16ccn
.	.	.	16dd-
.	.	.	16cc
.	.	.	16dd-
.	.	.	16ee-
.	.	.	16dd-
.	.	.	16ee-
.	.	.	16cc
=12	=12	=12	=12
*	*	*staff:8	*
*	*	*clefG2	*
*	*	*k[b-e-a-d-g-c-]	*
2B- 2d- 2f	1.ryy	2ryy	4.dd-W
.	.	.	16ccn
.	.	.	16b-
2B- 2d- 2f	.	4b- 4dd-	[4ff
.	.	4ryy	16ff]
.	.	.	16gg-
.	.	.	16ff
.	.	.	16ee-
2B- 2d- 2f	.	2ryy	16dd-
.	.	.	16ccn
.	.	.	16b-
.	.	.	16a-
.	.	.	8g-
.	.	.	16a-
.	.	.	16f
=13	=13	=13	=13
2E- 2B- 2d-	1.ryy	4e-	[4g-
.	.	4ryy	8g-]
.	.	.	16b-
.	.	.	16dd-
2E- 2B- 2cn	.	2ryy	[4gg-
.	.	.	16gg-]
.	.	.	16ff
.	.	.	16ee-
.	.	.	16dd-
2E- 2B- 2c	.	2ryy	8.ccn
.	.	.	32ee-
.	.	.	32dd-
.	.	.	16cc
.	.	.	16dd-
.	.	.	8ee-
=14	=14	=14	=14
2E- 2An 2cn	1.ryy	2ryy	8.f
.	.	.	32gn
.	.	.	32an
.	.	.	8.aw
.	.	.	32g
.	.	.	32a
2D- 2F 2B-	.	4r	[1b-
.	.	8r	.
.	.	8f	.
2E- 2B-	.	4.g-	.
.	.	8e-	.
=15	=15	=15	=15
*	*staff:6	*	*
*	*clefG2	*	*
*	*k[b-e-a-d-g-c-]	*	*
2F	2F	[4cn	1b-]
.	.	16c]	.
.	.	16d-	.
.	.	16c	.
.	.	16d-	.
2FF 2F	2ryy	16e-	.
.	.	16d-	.
.	.	16c	.
.	.	16d-	.
.	.	16e-	.
.	.	16f	.
.	.	16e-	.
.	.	16f	.
2FF 2F	2cn	4g-	2an
.	.	8.ft	.
.	.	16e-	.
=16	=16	=16	=16
2BB- 2F 2B-	1.ryy	4.d-	4.b-
.	.	8e-	8ccn
4r	.	2f 2b-	2dd-
8r	.	.	.
8BB-	.	.	.
4.D-	.	2f 2b-	2dd-
8F	.	.	.
=17	=17	=17	=17
[2GGn	1.ryy	4.f- 4.b-	4.dd-
.	.	8ryy	16cc-
.	.	.	16b-
4GG_	.	[2b- [2dd-	[2ff-X
16GG]	.	.	.
16BB-	.	.	.
16AA-	.	.	.
16GG	.	.	.
[2D-	.	4.b-] 4.dd-]	4.ff-]
.	.	8ryy	16ee-
.	.	.	16dd-
=18	=18	=18	=18
4.D-]	1.ryy	[2b- [2dd-	[2ggn
16C-	.	.	.
16BB-	.	.	.
8F-	.	4.b-] 4.dd-]	4.gg]
8E-	.	.	.
8F-	.	.	.
8D-	.	8ryy	16ff
.	.	.	16ee-
16C-	.	2cc- 2ee-	[2aa-
16BB-	.	.	.
16AA-	.	.	.
16BB-	.	.	.
16C-	.	.	.
16AA-	.	.	.
16BB-	.	.	.
16C-	.	.	.
=19	=19	=19	=19
*	*staff:4	*	*
[4FF-	2ryy	2ryy	8aa-]
.	.	.	8ggn
16FF-]	.	.	8aa-
16F-X	.	.	.
16E-	.	.	8bb-
16D-	.	.	.
4.E-	2ee-	1ggn	2.bb-m
8D-	.	.	.
4.E-	2dd-	.	.
.	.	.	4aa-
8EE-	.	.	.
=20	=20	=20	=20
2AA-	4.cc-	4.ee-	4.aa-
.	8ryy	8ryy	8ccc-
4r	2ryy	2ryy	4.ff
8r	.	.	.
8c-	.	.	16gg-
.	.	.	16aa-
4.F	2ryy	2ryy	4.ddn
16G-	.	.	16ee-
16A-	.	.	16ff
=21	=21	=21	=21
4.Dn	1.ryy	1.ryy	4.b-
16E-	.	.	8aa-
16F	.	.	.
4.BB-	.	.	4.ddn
8A-	.	.	16ee-
.	.	.	16ff
4.D	.	.	4.b-
16E-	.	.	16ccn
16F	.	.	16ddn
=22	=22	=22	=22
2GG-	1.ryy	1ryy	4.ee-
.	.	.	16dd-X
.	.	.	16cc-X
4.GGn	.	.	2dd-
8B-	.	.	.
4.Gn	.	2e- 2b-	2dd-
8E-	.	.	.
=23	=23	=23	=23
2AA-	1.ryy	4.e- 4.b-	4.dd-
.	.	8r	16cc-
.	.	.	16b-
4r	.	2r	2cc-
8r	.	.	.
8c-	.	.	.
4.A-	.	2e- 2a-	2cc-
8F	.	.	.
=24	=24	=24	=24
2Dn 2F 2A-	1.ryy	4.f 4.a-	4.cc-
.	.	8ryy	16b-
.	.	.	16a-
2D 2F 2B-	.	2ryy	4.ff
.	.	.	8cc-
2D 2F 2B-	.	2ryy	4.b-t
.	.	.	16cc-
.	.	.	16a-
=25	=25	=25	=25
2E- 2G- 2B-	1.ryy	2e-	[2g-
2E- 2G- 2B-	.	2ryy	16g-]
.	.	.	16e-
.	.	.	16f
.	.	.	16g-
.	.	.	16a-
.	.	.	16b-
.	.	.	16ccn
.	.	.	16ddn
2E- 2G- 2B-	.	2ryy	16ee-
.	.	.	16ff
.	.	.	16gg-
.	.	.	16aa-
.	.	.	16gg-
.	.	.	16ff
.	.	.	16gg-
.	.	.	16ee-
=26	=26	=26	=26
2AA- 2C- 2F- 2A-	1.ryy	4.f- 4.a- 4.cc-	4.ff-X
.	.	8ryy	16cc-
.	.	.	16b--
2r	.	2r	4.a-
.	.	.	16b--X
.	.	.	16cc-
2r	.	2r	4.f-X
.	.	.	16g-
.	.	.	16a-
=27	=27	=27	=27
2AA- 2F 2B-	1.ryy	2ryy	4.dn
.	.	.	16fn
.	.	.	16a-
2r	.	2r	4.cc-
.	.	.	16b-
.	.	.	16a-
2r	.	2r	4.ff
.	.	.	16ee-
.	.	.	16ddn
=28	=28	=28	=28
*	*staff:8	*	*
2r	2r	2r	8ccc-
.	.	.	4aan
.	.	.	8bb-
2BB- 2E- 2G- 2B-	1ryy	2g- 2b-	2ee-
2BB- 2F 2A- 2B-	.	2f 2b-	4.ddn
.	.	.	8ee-
=29	=29	=29	=29
2C- 2c-	1.ryy	6...e- 6...b-	[1.ee-
.	.	16a-	.
.	.	16gn	.
.	.	16a-	.
2c- 2e-	.	[2a-W	.
2c- 2e-	.	4.a-]	.
.	.	16gn	.
.	.	16a-	.
=30	=30	=30	=30
2Gn 2B- 2e-	1.ryy	1.b-	2ee-_
2G 2B- 2e-	.	.	4ee-_
.	.	.	16ee-]
.	.	.	16ee-
.	.	.	16dd-
.	.	.	16cc-
2G 2B- 2e-	.	.	4.dd-
.	.	.	8b-
=31	=31	=31	=31
*	*staff:6	*	*
2A- 2c-	[2e-	2a-	[2cc-
2F-	4e-_	2ryy	4cc-_
.	16e-]	.	16cc-]
.	16e-	.	16cc-
.	16d-	.	16b-
.	16c-	.	16a-
2F-	4.d-	2ryy	4.b-
.	8B-	.	8gn
=32	=32	=32	=32
[2Fn	1.ryy	1.ryy	2c- 2dn 2a-
4F_	.	.	2c- 2d 2a-
16F]	.	.	.
16G-	.	.	.
16F	.	.	.
16E-	.	.	.
8.F	.	.	2c- 2d 2a-
16G-	.	.	.
16A-	.	.	.
16F	.	.	.
16G-	.	.	.
16A-	.	.	.
=33	=33	=33	=33
[2Dn	1.ryy	1.ryy	2c- 2f 2a-
4D_	.	.	2c- 2f 2a-
16D]	.	.	.
16E-	.	.	.
16D	.	.	.
16Cn	.	.	.
8.D	.	.	2c- 2f 2a-
16E-	.	.	.
16F	.	.	.
16D	.	.	.
16E-	.	.	.
16F	.	.	.
=34	=34	=34	=34
[2C-	1.ryy	1.ryy	2dn 2f 2a-
4C-_	.	.	2d 2f 2a-
16C-]	.	.	.
16D-	.	.	.
16C-	.	.	.
16BB-	.	.	.
16C-	.	.	2d 2f 2a-
16BB-	.	.	.
16AA-	.	.	.
16BB-	.	.	.
16C-	.	.	.
16AA-	.	.	.
16BB-	.	.	.
16C-	.	.	.
=35	=35	=35	=35
*	*	*staff:4	*
2DDn	1.ryy	2dn 2f 2a-	[2cc-
2r	.	2r	16cc-]
.	.	.	16b-
.	.	.	16a-
.	.	.	16g-
.	.	.	16f
.	.	.	16e-
.	.	.	16dn
.	.	.	16f
2r	.	2r	16a-
.	.	.	16cc-
.	.	.	16ddn
.	.	.	16ff
.	.	.	16aa-
.	.	.	16ccc-
.	.	.	16bb-
.	.	.	16dd
=36	=36	=36	=36
*	*staff:4	*	*
4r	4r	4r	4.ee-
8r	8r	8r	.
8EE-	8E-	8g-	8b-
.	.	.	8a-Q
2BB-	2E- 2G-	2e-	2g-
2BB-	2F 2A-Wy	2dn	8fw
.	.	.	8e-
.	.	.	4f
=37	=37	=37	=37
2E- 2Gn 2B- 2d-X	1.ryy	1.ryy	[2e-
2E- 2G 2B- 2d-	.	.	4e-_
.	.	.	16e-]
.	.	.	16f
.	.	.	16gn
.	.	.	16a-
2E- 2G 2B- 2d-	.	.	[4b-
.	.	.	16b-]
.	.	.	16f-
.	.	.	16e-
.	.	.	16d-
=38	=38	=38	=38
2E- 2A-	1.ryy	1.ryy	[2c-
2E- 2A-	.	.	8.c-]
.	.	.	16e-
.	.	.	16fn
.	.	.	16gn
.	.	.	16a-
.	.	.	16b-
2E- 2A-	.	.	[8cc-
.	.	.	32cc-]
.	.	.	32b-
.	.	.	32a-
.	.	.	32g-
.	.	.	16f
.	.	.	16g-
.	.	.	16a-
.	.	.	16f
=39	=39	=39	=39
*	*	*staff:2	*
2E- 2F	1.ryy	4r	[1dn
.	.	8r	.
.	.	16c-	.
.	.	16B-	.
2E- 2F	.	4.c-	.
.	.	8A-	.
2E-	.	2F	4.d]
.	.	.	8d
=40	=40	=40	=40
1.EE- 1.BB-	1.ryy	1.E-;y 1.Gn;y 1.B-;y	1.e-;
==	==	==	==
*-	*-	*-	*-
!!!AFR:  prelude
!!!EFL:  15/96
!!!END:  1994/01/12/
!!!VID:  390789908 Bach, BWV 853-01
!!!AST:  Baroque
!!!OCY:  Deutschland
!!!ODT:  1722///
!!!PDT:  1801///
!!!EED:  Walter Hewlett
!!!ENC:  Walter Hewlett
!!!YOR:  Bach Gesellschaft Edition xiv
!!!AFT:  enhanced SCORE
!!!RDT:  2011/10/07/ by Andreas Kornstaedt using massScr2hmd
!!!SCA1: Thematisch-systematisches Verzeichnis der musikalischen Werke 
!!!SCA2: Johann Sebastian Bach: Bach-Werke-Verzeichnis (Schmieder)
!!!YEC1: Copyright 1994, 2000 Center for Computer Assisted Research 
!!!YEC2: in the Humanities
!!!YEM1: Rights to all derivative editions reserved.
!!!YEM2: Refer to licensing agreement for further details.
!!!YEN:  United States of America
!!!ref:  @{OTL}, @{SCT}
!!muse2ps: T^@{OTL} @{ONM} in @{OKY}^C^J.S. Bach\n@{SCT}-@{OMV}^
!!muse2ps: u^@{OPR@ENG}, @{OVM@ENG}^j
